X: 30401
M: 2/4
L: 1/16
K: F
(3FFF AF c2(Ac) | defd dcBA | (Bd).G.B (Ac).F.A | GABG FEDC |\
(3FFF (AF) c2(Ac) | defd dcBA | (Bd).G.B (Ac)fc | dBGE F2 :|
|: c2 |\
{g}fefg afcf | (dc).d.e (fc).A.c | {g}fefg afcf | dfeg f3c |\
{g}fefg afcf | (dc).d.e (fc).A.F | FAcf dBGE | F2A2F2 :|


